assets/svg/paid.svg

<?xml version="1.0" encoding="UTF-8"?>
<svg width="1000px" height="1000px" viewBox="0 0 1000 1000" version="1.1" xmlns="http://www.w3.org/2000/svg" xmlns:xlink="http://www.w3.org/1999/xlink">
    <!-- Generator: sketchtool 52.4 (67378) - http://www.bohemiancoding.com/sketch -->
    <title>paid</title>
    <desc>Created with sketchtool.</desc>
    <g id="新版图标" stroke="none" stroke-width="1" fill="none" fill-rule="evenodd">
        <g id="paid" fill="#323233" fill-rule="nonzero">
            <g id="圆角-已付款-线">
                <path d="M111.111111,333.333333 L111.111111,777.777778 L888.888889,777.777778 L888.888889,333.333333 L111.111111,333.333333 Z M777.777778,277.777778 L777.777778,222.222222 L777.777778,166.666667 C808.460264,166.666667 833.333333,191.539736 833.333333,222.222222 L833.333333,277.777778 L888.888889,277.777778 C919.571375,277.777778 944.444444,302.650847 944.444444,333.333333 L944.444444,777.777778 C944.444444,808.460264 919.571375,833.333333 888.888889,833.333333 L111.111111,833.333333 C80.428625,833.333333 55.5555556,808.460264 55.5555556,777.777778 L55.5555556,277.777778 L777.777778,277.777778 Z M398.954319,166.648865 L554.741433,76.7051324 C581.313245,61.3638894 615.29049,70.4680647 630.631733,97.0398771 L670.830779,166.666667 L777.777778,166.666667 L777.777778,222.222222 L702.905794,222.222222 L754.850246,312.192653 L689.169157,309.540781 L582.51921,124.817655 L290.452234,293.442602 L186.603424,289.249711 L302.729274,222.20442 L138.888889,222.20442 L138.888889,222.222222 C123.547646,222.222222 111.111111,234.658757 111.111111,250 C111.111111,265.341243 123.547646,277.777778 138.888889,277.777778 L138.888889,333.333333 C121.128966,333.333333 104.666647,327.777628 91.1450754,318.30936 L55.5386013,318.30936 L55.5386013,248.864916 L55.5631282,248.864916 C56.1606221,204.108656 92.0410259,167.869575 136.656012,166.696001 L136.656019,166.648865 L398.954319,166.648865 Z M944.444444,444.444444 L666.666667,444.444444 C605.301694,444.444444 555.555556,494.190583 555.555556,555.555556 C555.555556,616.920528 605.301694,666.666667 666.666667,666.666667 L944.444444,666.666667 L944.444444,722.222222 L666.666667,722.222222 C574.619208,722.222222 500,647.603014 500,555.555556 C500,463.508097 574.619208,388.888889 666.666667,388.888889 L944.444444,388.888889 L944.444444,444.444444 Z M680.555556,597.222222 C657.543691,597.222222 638.888889,578.56742 638.888889,555.555556 C638.888889,532.543691 657.543691,513.888889 680.555556,513.888889 C703.56742,513.888889 722.222222,532.543691 722.222222,555.555556 C722.222222,578.56742 703.56742,597.222222 680.555556,597.222222 Z" id="Combined-Shape"></path>
            </g>
        </g>
    </g>
</svg>

<svg width="1000" height="1000" xmlns="http://www.w3.org/2000/svg"><path d="M111.111 333.333v444.445H888.89V333.333H111.11zm666.667-55.555V166.667c30.682 0 55.555 24.873 55.555 55.555v55.556h55.556c30.682 0 55.555 24.873 55.555 55.555v444.445c0 30.682-24.873 55.555-55.555 55.555H111.11c-30.682 0-55.555-24.873-55.555-55.555v-500h722.222zm-378.824-111.13l155.787-89.943c26.572-15.341 60.55-6.237 75.89 20.335l40.2 69.627h106.947v55.555h-74.872l51.944 89.97-65.68-2.651-106.65-184.723-292.068 168.625-103.849-4.193 116.126-67.046H138.89v.018c-15.341 0-27.778 12.437-27.778 27.778s12.437 27.778 27.778 27.778v55.555c-17.76 0-34.222-5.555-47.744-15.024H55.54v-69.444h.024c.598-44.756 36.478-80.995 81.093-82.169v-.047h262.298zm545.49 277.796H666.667c-61.365 0-111.111 49.747-111.111 111.112 0 61.365 49.746 111.11 111.11 111.11h277.778v55.556H666.667C574.619 722.222 500 647.603 500 555.556c0-92.048 74.62-166.667 166.667-166.667h277.777v55.555zM680.556 597.222c-23.012 0-41.667-18.655-41.667-41.666 0-23.012 18.655-41.667 41.667-41.667 23.011 0 41.666 18.655 41.666 41.667 0 23.011-18.655 41.666-41.666 41.666z" fill="#323233" fill-rule="nonzero"/></svg>
